static/img/menus/ico-floor-unlock-door.svg

<svg width="20" height="20" viewBox="0 0 20 20" fill="none" xmlns="http://www.w3.org/2000/svg">
<path d="M9.99999 18.506L9.89765 18.4855C9.67947 18.4419 9.49616 18.3471 9.3528 18.2037C9.21111 18.062 9.1025 17.8989 9.02995 17.7188C8.89491 17.3915 8.68861 17.0761 8.41655 16.7812C8.21987 16.6058 8.02247 16.4578 7.8293 16.3408L6.27621 15.5125L6.26613 15.5071L6.2563 15.5013C5.71084 15.179 5.19621 14.7775 4.72672 14.308L4.7187 14.3L4.71104 14.2917C4.45163 14.0087 4.20043 13.7216 3.96439 13.4383L3.95531 13.4274L3.94683 13.4161C3.0012 12.1469 2.52173 10.6612 2.52173 8.99999C2.52173 6.94094 3.26359 5.15506 4.72672 3.69193C5.19265 3.226 5.70315 2.83843 6.24453 2.53958C6.42091 2.41562 6.61105 2.30244 6.81015 2.20289L6.81743 2.19925L6.82483 2.19584C7.79399 1.74853 8.86227 1.52173 9.99999 1.52173C11.1377 1.52173 12.206 1.74853 13.1751 2.19584L13.1825 2.19925L13.1898 2.20289C13.3889 2.30244 13.5791 2.41562 13.7555 2.53958C14.2968 2.83843 14.8073 3.226 15.2733 3.69193C16.7364 5.15506 17.4783 6.94094 17.4783 8.99999C17.4783 10.6612 16.9988 12.1469 16.0531 13.4161C15.8297 13.714 15.5676 14.0137 15.2733 14.308C14.8038 14.7775 14.2891 15.179 13.7437 15.5013L13.736 15.5059L13.7281 15.5102L12.1977 16.345C11.9855 16.4607 11.7789 16.6074 11.5833 16.7814C11.3113 17.0762 11.105 17.3915 10.97 17.7188C10.8975 17.8989 10.7889 18.062 10.6472 18.2037C10.5038 18.3471 10.3205 18.4419 10.1023 18.4855L9.99999 18.506Z" fill="#42E100"/>
<path d="M10 2.04348C8.93334 2.04348 7.94783 2.25217 7.04348 2.66957C6.85797 2.76232 6.68406 2.86666 6.52174 2.98261C6.0116 3.26087 5.53623 3.62029 5.09565 4.06087C3.72753 5.42899 3.04348 7.07536 3.04348 9C3.04348 10.5536 3.48406 11.9217 4.36522 13.1043C4.5971 13.3826 4.84058 13.6609 5.09565 13.9391C5.53623 14.3797 6.0116 14.7507 6.52174 15.0522L8.08696 15.887C8.31884 16.0261 8.55073 16.2 8.78261 16.4087C9.10725 16.7565 9.35073 17.1275 9.51304 17.5217C9.55942 17.6377 9.62899 17.742 9.72174 17.8348C9.79131 17.9043 9.88406 17.9507 10 17.9739C10.1159 17.9507 10.2087 17.9043 10.2783 17.8348C10.371 17.742 10.4406 17.6377 10.487 17.5217C10.6493 17.1275 10.8928 16.7565 11.2174 16.4087C11.4493 16.2 11.6928 16.0261 11.9478 15.887L13.4783 15.0522C13.9884 14.7507 14.4638 14.3797 14.9043 13.9391C15.1826 13.6609 15.4261 13.3826 15.6348 13.1043C16.5159 11.9217 16.9565 10.5536 16.9565 9C16.9565 7.07536 16.2725 5.42899 14.9043 4.06087C14.4638 3.62029 13.9884 3.26087 13.4783 2.98261C13.3159 2.86666 13.142 2.76232 12.9565 2.66957C12.0522 2.25217 11.0667 2.04348 10 2.04348ZM10 1C11.2138 1 12.3556 1.24296 13.3938 1.72213L13.4232 1.73624C13.6366 1.84298 13.8412 1.96399 14.0321 2.09642C14.6072 2.41703 15.1486 2.82947 15.6422 3.32302C17.2067 4.88754 18 6.79755 18 9C18 10.776 17.4857 12.3666 16.4715 13.7278C16.2323 14.0468 15.954 14.3652 15.6422 14.677C15.1417 15.1774 14.5923 15.6059 14.0091 15.9505L13.9779 15.9682L12.4475 16.803C12.277 16.896 12.1096 17.0141 11.9493 17.1542C11.7287 17.3972 11.562 17.653 11.4534 17.9153C11.3544 18.1603 11.2074 18.3814 11.0161 18.5726C10.8017 18.787 10.5211 18.9338 10.2047 18.9971L10 19.0381L9.79532 18.9971C9.47888 18.9338 9.19829 18.787 8.98389 18.5726C8.79264 18.3814 8.64556 18.1603 8.54664 17.9153C8.43795 17.6528 8.27102 17.3967 8.0501 17.1536C7.88778 17.0105 7.72679 16.8898 7.57069 16.7942L5.99089 15.9505C5.40771 15.6059 4.85827 15.1774 4.3578 14.677L4.32645 14.6442C4.06152 14.3552 3.80486 14.0619 3.56359 13.7724L3.52847 13.7278C2.51425 12.3666 2 10.776 2 9C2 6.79755 2.79328 4.88754 4.3578 3.32302C4.85135 2.82947 5.39279 2.41703 5.96789 2.09642C6.15879 1.96399 6.36336 1.84298 6.57684 1.73624L6.6062 1.72213C7.6444 1.24296 8.78624 1 10 1Z" fill="black"/>
<path d="M6.86936 13.174C6.82183 13.1803 6.77342 13.1755 6.72806 13.16C6.68269 13.1444 6.64151 13.1186 6.60781 13.0845C6.57411 13.0504 6.54875 13.0089 6.53376 12.9634C6.51878 12.9178 6.51467 12.8695 6.52154 12.822V10.047C6.51467 9.99958 6.51878 9.95119 6.53376 9.90565C6.54875 9.8601 6.57411 9.81866 6.60781 9.78455C6.64151 9.75045 6.68269 9.72459 6.72806 9.70906C6.77342 9.69353 6.82183 9.68875 6.86936 9.69505H13.1302C13.1778 9.6886 13.2261 9.69324 13.2715 9.70872C13.317 9.7242 13.358 9.75007 13.3918 9.78421C13.4255 9.81835 13.4509 9.85986 13.4658 9.90548C13.4808 9.95109 13.4851 9.99956 13.4781 10.047V12.822C13.4851 12.8695 13.4808 12.9179 13.4658 12.9636C13.4509 13.0092 13.4255 13.0507 13.3918 13.0848C13.358 13.119 13.317 13.1448 13.2715 13.1602C13.2261 13.1757 13.1778 13.1804 13.1302 13.174H6.86936ZM7.21719 9.3479V7.26095C7.21377 6.89396 7.28292 6.52993 7.42031 6.18961C7.5577 5.8493 7.76089 5.53942 8.01814 5.27767C8.27952 5.02041 8.58901 4.81728 8.92914 4.6801C9.26927 4.54293 9.63307 4.47439 9.9998 4.47834C10.3618 4.47181 10.7212 4.53934 11.0562 4.67679C11.3911 4.81424 11.6944 5.01875 11.9475 5.27767C12.2149 5.53357 12.4269 5.8416 12.5704 6.18274C12.714 6.52388 12.7863 6.89084 12.7824 7.26095H12.0868C12.0903 6.98207 12.0368 6.70546 11.9291 6.44819C11.8215 6.19092 11.6616 5.95846 11.4604 5.76528C11.2705 5.57175 11.0432 5.4194 10.7919 5.31767C10.5406 5.21594 10.2708 5.16703 9.9998 5.17399C9.72348 5.16808 9.4491 5.21733 9.19205 5.31886C8.935 5.42039 8.7002 5.57214 8.50251 5.76528C8.30967 5.96283 8.15815 6.1969 8.05686 6.45371C7.95557 6.71053 7.90677 6.98494 7.91284 7.26095V9.3479H7.21719Z" fill="white"/>
<path d="M13.1304 13.1745C13.3614 13.1745 13.4775 13.0566 13.4775 12.8223V10.0476C13.4775 9.81339 13.3614 9.69544 13.1304 9.69544H6.87019C6.63785 9.69544 6.521 9.81339 6.521 10.0476V12.8223C6.521 13.0566 6.63785 13.1745 6.87019 13.1745H13.1304ZM7.91366 9.34821V7.26142C7.91027 6.6816 8.1066 6.18364 8.50334 5.76601C8.9191 5.37131 9.41231 5.17472 9.98635 5.17472C9.99383 5.17472 10.0006 5.17463 10.0081 5.17472C10.5808 5.17472 11.0652 5.37131 11.4599 5.76601C11.879 6.18364 12.0869 6.68321 12.0869 7.26142H12.7832C12.7832 6.49486 12.5047 5.83318 11.9476 5.2779C11.4171 4.74716 10.7683 4.48017 10.0006 4.47856C9.23364 4.48178 8.57195 4.74716 8.01828 5.2779C7.48771 5.83318 7.22073 6.49486 7.21733 7.26142V9.34821H7.91366ZM13.1304 13.8727H6.87019C6.25334 13.8727 5.82263 13.4409 5.82263 12.8223V10.0476C5.82263 9.5549 6.09573 9.18058 6.51896 9.0487V7.26142C6.52304 6.31025 6.85796 5.48162 7.51353 4.79547L7.53527 4.77382C8.21869 4.1185 9.0475 3.78426 9.9979 3.78027H10.002C10.9571 3.78223 11.7778 4.12003 12.4415 4.78418C13.1311 5.47176 13.4816 6.30558 13.4816 7.26142V7.95971H11.3885V7.26142C11.3885 6.86528 11.2547 6.54726 10.9667 6.26074C10.7017 5.99597 10.3974 5.873 10.0081 5.873H9.98635C9.59573 5.873 9.28051 5.99605 8.99722 6.26015C8.73228 6.54479 8.60932 6.86213 8.61203 7.25735V8.99715H13.1304C13.7459 8.99715 14.1759 9.42905 14.1759 10.0476V12.8223C14.1759 13.4409 13.7459 13.8727 13.1304 13.8727Z" fill="black" fill-opacity="0.25"/>
</svg>

<svg xmlns="http://www.w3.org/2000/svg" width="20" height="20" fill="none" viewBox="0 0 20 20"><path fill="#42e100" d="m10 18.506-.102-.02a1.04 1.04 0 0 1-.545-.282 1.45 1.45 0 0 1-.323-.485 3.2 3.2 0 0 0-.613-.938 4 4 0 0 0-.588-.44l-1.553-.829-.01-.005-.01-.006a7.7 7.7 0 0 1-1.53-1.193L4.72 14.3l-.008-.008q-.39-.426-.747-.854l-.009-.01-.008-.012C3 12.146 2.522 10.661 2.522 9c0-2.06.742-3.845 2.205-5.308A6.8 6.8 0 0 1 6.245 2.54q.265-.187.565-.337l.007-.004.008-.003A7.5 7.5 0 0 1 10 1.522c1.138 0 2.206.227 3.175.674l.007.003.008.004q.3.15.566.337a6.8 6.8 0 0 1 1.517 1.152C16.736 5.155 17.478 6.94 17.478 9c0 1.661-.48 3.147-1.425 4.416a8.4 8.4 0 0 1-.78.892c-.47.47-.984.871-1.53 1.193l-.007.005-.008.004-1.53.835a3.3 3.3 0 0 0-.615.436 3.2 3.2 0 0 0-.613.938q-.109.271-.323.485a1.04 1.04 0 0 1-.545.281z"/><path fill="#000" d="M10 2.043q-1.6 0-2.957.627-.278.139-.521.313-.765.417-1.426 1.078Q3.044 6.113 3.043 9q0 2.331 1.322 4.104.349.418.73.835.662.66 1.427 1.113l1.565.835q.348.21.696.522.486.522.73 1.113.07.174.209.313a.53.53 0 0 0 .278.139.53.53 0 0 0 .278-.14.9.9 0 0 0 .209-.312q.244-.591.73-1.113.349-.314.73-.522l1.531-.835q.765-.452 1.426-1.113.418-.417.73-.835Q16.957 11.331 16.957 9q0-2.887-2.052-4.94-.66-.66-1.426-1.077a4 4 0 0 0-.521-.313Q11.6 2.043 10 2.043M10 1c1.214 0 2.356.243 3.394.722l.03.014q.32.161.608.36c.575.321 1.117.733 1.61 1.227C17.207 4.888 18 6.798 18 9c0 1.776-.514 3.367-1.529 4.728a9 9 0 0 1-.829.949c-.5.5-1.05.929-1.633 1.274l-.031.017-1.53.835q-.257.14-.499.351-.331.366-.496.761a2 2 0 0 1-.437.658 1.58 1.58 0 0 1-.811.424l-.205.041-.205-.04a1.58 1.58 0 0 1-.811-.425 2 2 0 0 1-.437-.658 2.7 2.7 0 0 0-.497-.761 3.5 3.5 0 0 0-.48-.36l-1.58-.844a8.3 8.3 0 0 1-1.632-1.273l-.032-.033a25 25 0 0 1-.762-.872l-.036-.044C2.514 12.367 2 10.776 2 9c0-2.202.793-4.112 2.358-5.677a7.3 7.3 0 0 1 1.61-1.227 5 5 0 0 1 .609-.36l.03-.014A8 8 0 0 1 10 1"/><path fill="#fff" d="M6.87 13.174a.31.31 0 0 1-.348-.352v-2.775a.31.31 0 0 1 .347-.352h6.261a.31.31 0 0 1 .348.352v2.775a.31.31 0 0 1-.348.352zm.347-3.826V7.26a2.8 2.8 0 0 1 .801-1.983 2.78 2.78 0 0 1 1.982-.8 2.66 2.66 0 0 1 1.947.8 2.7 2.7 0 0 1 .835 1.983h-.695a2.04 2.04 0 0 0-.627-1.496A1.97 1.97 0 0 0 10 5.174a2.08 2.08 0 0 0-1.497.591 2.08 2.08 0 0 0-.59 1.496v2.087z"/><path fill="#000" fill-opacity=".25" d="M13.13 13.175q.347 0 .347-.353v-2.774q0-.353-.347-.353H6.87q-.349 0-.349.353v2.774q0 .353.35.353zM7.914 9.348V7.261a2.08 2.08 0 0 1 .59-1.495 2.08 2.08 0 0 1 1.482-.591h.022q.86 0 1.452.591.628.627.627 1.495h.696q0-1.15-.835-1.983-.796-.796-1.947-.8a2.78 2.78 0 0 0-1.983.8 2.8 2.8 0 0 0-.8 1.983v2.087zm5.216 4.525H6.87c-.617 0-1.047-.432-1.047-1.05v-2.775c0-.493.273-.867.696-1V7.262c.004-.95.339-1.78.995-2.466l.021-.021a3.47 3.47 0 0 1 2.463-.994h.004c.955.002 1.776.34 2.44 1.004.69.688 1.04 1.522 1.04 2.477v.699h-2.093V7.26c0-.396-.134-.714-.422-1a1.27 1.27 0 0 0-.959-.388h-.022c-.39 0-.705.123-.989.387a1.37 1.37 0 0 0-.385.997v1.74h4.518c.616 0 1.046.432 1.046 1.05v2.775c0 .619-.43 1.05-1.046 1.05"/></svg>
